X: 3153
T: JOSEPH HUME
Q: "Strathspey."
R: Strathspey.
%R: strathspey
B: James Kerr "Merry Melodies" v.3 p.18 #153
Z: 2016 John Chambers <jc:trillian.mit.edu>
M: C
L: 1/16
K: F
uE |\
FF3 F3G A3G Ff3 | FF3 F3G AGFE D3E |\
FF3 F3G AF3 f3c | df3 c3A BAGF D3 ::\
E |\
Ff3 f3g a3gf3c |
Af3 f3a g3ab3g |\
[1 af3 eg3 fd3 cf3 | df3 cA3 BAGF D3 :|\
[2 (3a2g2f2 (3e2f2g2 (3f2e2d2 (3c2d2e2 | fa3 c3A BAGF D3 |]

%%sep 1 1 500
%%sep 1 1 500

